img/star-empty.svg

<svg xmlns="http://www.w3.org/2000/svg" viewBox="0 0 18 18"><path fill="#ffb900" d="M9 0l3 6 6 .75-4.13 4.62L15 18l-6-3-6 3 1.12-6.63L0 6.75 6 6l3-6zm0 2.24L6.66 6.93l-4.65.58 3.18 3.56-.87 5.15L9 13.88l4.68 2.34-.87-5.15 3.18-3.56-4.65-.58L9 2.24z"/></svg>

<svg width="18" height="18" viewBox="0 0 18 18" fill="none" xmlns="http://www.w3.org/2000/svg">
<path d="M9 0L12 6L18 6.75L13.87 11.37L15 18L9 15L3 18L4.12 11.37L0 6.75L6 6L9 0ZM9 2.24L6.66 6.93L2.01 7.51L5.19 11.07L4.32 16.22L9 13.88L13.68 16.22L12.81 11.07L15.99 7.51L11.34 6.93L9 2.24Z" fill="#F4DFD0"/>
</svg>
